icons/line/cash.svg

<svg width="24" height="24" viewBox="0 0 24 24" fill="none" xmlns="http://www.w3.org/2000/svg">
<path fill-rule="evenodd" clip-rule="evenodd" d="M4 7C4 6.44772 4.44772 6 5 6H15C15.5523 6 16 6.44772 16 7V8H9C7.34315 8 6 9.34315 6 11V14H5C4.44772 14 4 13.5523 4 13V7ZM18 7V8H19C20.6569 8 22 9.34315 22 11V17C22 18.6569 20.6569 20 19 20H9C7.34315 20 6 18.6569 6 17V16H5C3.34315 16 2 14.6569 2 13V7C2 5.34315 3.34315 4 5 4H15C16.6569 4 18 5.34315 18 7ZM8 11C8 10.4477 8.44772 10 9 10H17H19C19.5523 10 20 10.4477 20 11V17C20 17.5523 19.5523 18 19 18H9C8.44772 18 8 17.5523 8 17V15V11ZM13 14C13 13.4477 13.4477 13 14 13C14.5523 13 15 13.4477 15 14C15 14.5523 14.5523 15 14 15C13.4477 15 13 14.5523 13 14ZM14 11C12.3431 11 11 12.3431 11 14C11 15.6569 12.3431 17 14 17C15.6569 17 17 15.6569 17 14C17 12.3431 15.6569 11 14 11Z" fill="currentColor"/>
</svg>

<svg width="24" height="24" fill="none" xmlns="http://www.w3.org/2000/svg"><path fill-rule="evenodd" clip-rule="evenodd" d="M4 7a1 1 0 011-1h10a1 1 0 011 1v1H9a3 3 0 00-3 3v3H5a1 1 0 01-1-1V7zm14 0v1h1a3 3 0 013 3v6a3 3 0 01-3 3H9a3 3 0 01-3-3v-1H5a3 3 0 01-3-3V7a3 3 0 013-3h10a3 3 0 013 3zM8 11a1 1 0 011-1h10a1 1 0 011 1v6a1 1 0 01-1 1H9a1 1 0 01-1-1v-6zm5 3a1 1 0 112 0 1 1 0 01-2 0zm1-3a3 3 0 100 6 3 3 0 000-6z" fill="currentColor"/></svg>
